ix/direct_bold.svg

<svg viewBox="0 0 24 24" fill="none" xmlns="http://www.w3.org/2000/svg" height="1em" width="1em">
  <path d="M21.3 12.2305H17.82C16.84 12.2305 15.97 12.7705 15.53 13.6505L14.69 15.3105C14.49 15.7105 14.09 15.9605 13.65 15.9605H10.37C10.06 15.9605 9.62 15.8905 9.33 15.3105L8.49 13.6605C8.05 12.7905 7.17 12.2405 6.2 12.2405H2.7C2.31 12.2405 2 12.5505 2 12.9405V16.2005C2 19.8305 4.18 22.0005 7.82 22.0005H16.2C19.63 22.0005 21.74 20.1205 22 16.7805V12.9305C22 12.5505 21.69 12.2305 21.3 12.2305Z" fill="#292D32"/>
  <path d="M16.19 2H7.81C4.17 2 2 4.17 2 7.81V10.85C2.22 10.77 2.46 10.73 2.7 10.73H6.2C7.75 10.73 9.14 11.59 9.83 12.98L10.58 14.45H13.44L14.19 12.97C14.88 11.59 16.27 10.73 17.82 10.73H21.3C21.54 10.73 21.78 10.77 22 10.85V7.81C22 4.17 19.83 2 16.19 2ZM10.45 5.41H13.55C13.93 5.41 14.25 5.72 14.25 6.1C14.25 6.49 13.93 6.8 13.55 6.8H10.45C10.07 6.8 9.75 6.49 9.75 6.1C9.75 5.72 10.07 5.41 10.45 5.41ZM14.33 9.59H9.67C9.29 9.59 8.98 9.28 8.98 8.9C8.98 8.51 9.29 8.2 9.67 8.2H14.33C14.71 8.2 15.02 8.51 15.02 8.9C15.02 9.28 14.71 9.59 14.33 9.59Z" fill="#292D32"/>
</svg>

<svg viewBox="0 0 24 24" fill="none" xmlns="http://www.w3.org/2000/svg" height="1em" width="1em">
  <path d="M21.3 12.23h-3.48c-.98 0-1.85.54-2.29 1.42l-.84 1.66c-.2.4-.6.65-1.04.65h-3.28c-.31 0-.75-.07-1.04-.65l-.84-1.65a2.567 2.567 0 0 0-2.29-1.42H2.7c-.39 0-.7.31-.7.7v3.26C2 19.83 4.18 22 7.82 22h8.38c3.43 0 5.54-1.88 5.8-5.22v-3.85c0-.38-.31-.7-.7-.7Z" fill="#292D32"/>
  <path d="M16.19 2H7.81C4.17 2 2 4.17 2 7.81v3.04c.22-.08.46-.12.7-.12h3.5c1.55 0 2.94.86 3.63 2.25l.75 1.47h2.86l.75-1.48a4.035 4.035 0 0 1 3.63-2.24h3.48c.24 0 .48.04.7.12V7.81C22 4.17 19.83 2 16.19 2Zm-5.74 3.41h3.1c.38 0 .7.31.7.69 0 .39-.32.7-.7.7h-3.1c-.38 0-.7-.31-.7-.7a.7.7 0 0 1 .7-.69Zm3.88 4.18H9.67c-.38 0-.69-.31-.69-.69 0-.39.31-.7.69-.7h4.66c.38 0 .69.31.69.7 0 .38-.31.69-.69.69Z" fill="#292D32"/>
</svg>
